dist/img/svg/youtube.svg

<svg width="22" height="22" viewBox="0 0 22 22" fill="none" xmlns="http://www.w3.org/2000/svg">
<g clip-path="url(#clip0_651_2886)">
<path d="M10.4224 4.05225C10.4635 4.05225 14.3238 4.0536 16.9019 4.25342C17.2638 4.29797 18.0529 4.30331 18.7573 5.08936C19.3123 5.68931 19.4927 7.05127 19.4927 7.05127C19.4953 7.07443 19.6782 8.6612 19.6782 10.2485V11.7466C19.6782 13.3456 19.4927 14.9448 19.4927 14.9448C19.4886 14.9748 19.3057 16.3129 18.7573 16.9048C18.0529 17.6908 17.2638 17.6954 16.9019 17.7417C14.3265 17.939 10.4678 17.9477 10.4185 17.9478C10.4185 17.9478 5.60213 17.9002 4.12061 17.7485C3.7083 17.6664 2.78366 17.6899 2.07861 16.9038C1.52659 16.3083 1.34521 14.9584 1.34326 14.9438C1.34326 14.9438 1.15774 13.3461 1.15771 11.7466V10.2476C1.15774 8.66096 1.34058 7.07453 1.34326 7.05127C1.34326 7.05127 1.52423 5.68932 2.07861 5.08936C2.78361 4.30333 3.57213 4.29797 3.93408 4.25342C6.52545 4.05252 10.4136 4.05225 10.4136 4.05225H10.4224ZM8.10498 14.4741L13.895 10.9995L8.10498 7.52588V14.4741Z" fill="currentColor"/>
</g>
<defs>
<clipPath id="clip0_651_2886">
<rect width="18.5263" height="18.5263" fill="white" transform="translate(1.15771 1.73682)"/>
</clipPath>
</defs>
</svg>

<svg width="22" height="22" viewBox="0 0 22 22" fill="none" xmlns="http://www.w3.org/2000/svg"><g clip-path="url(#clip0_651_2886)"><path d="M10.422 4.052c.041 0 3.902.002 6.48.201.362.045 1.15.05 1.855.836.555.6.736 1.962.736 1.962.002.023.185 1.61.185 3.197v1.499c0 1.599-.185 3.198-.185 3.198-.004.03-.187 1.368-.736 1.96-.704.786-1.493.79-1.855.837-2.576.197-6.434.206-6.484.206 0 0-4.816-.048-6.297-.2-.413-.082-1.337-.058-2.042-.844-.552-.596-.734-1.946-.736-1.96 0 0-.185-1.598-.185-3.197v-1.5c0-1.586.183-3.172.185-3.196 0 0 .181-1.362.736-1.962.705-.786 1.493-.791 1.855-.836 2.591-.2 6.48-.2 6.48-.2h.008zM8.105 14.474L13.895 11l-5.79-3.473v6.948z" fill="currentColor"/></g><defs><clipPath id="clip0_651_2886"><path fill="#fff" transform="translate(1.158 1.737)" d="M0 0h18.526v18.526H0z"/></clipPath></defs></svg>
